X:7
T:Hanter dro
C:Trad 4, 1
M:3/4
L:1/16
K:C
c2cd e2d2 e2ed| c2cd eedf e3d|c2cd eed2 e4:|
|:d2ef g2gf e2ed|gagf e2ec d4|\
d2ef g2gf e2ec| defe d2d2 c4:|
